X: 16462
T: Hag With The Money, The
R: jig
M: 6/8
K: Gmajor
Adc A3|AGE G3|Adc A3|GEA GED|
w: A D' C A-|A G E G-|A D' C A-|G E A G E D|
Adc A3|AGE G3|AGE cde|dcA GED:|
w: A D' C A-|A G E G-|A G E C D' E'|D' C A G E D|
|:AB^c d2 e|fed ed^c|AB^c d^cd|eag ed^c|
w: A B C# D'- E'|F#' E' D' E' D' C#|A B C# D' C# D'|E' A' G' E' D' C#|
AB^c d2 e|f3 efg|age ^cde|d=cA G3:|
w: A B C# D'- E'|F#'- E' F#' G'|A' G' E' C# D' E'|D' C A G-|

